X: 441
T: Lochiels Rant
R: reel
B: Robert Bremner "A Collection of Scots Reels or Country Dances" 1757 p.44 #1
S: http://imslp.org/wiki/A_Collection_of_Scots_Reels_or_Country_Dances_(Bremner,_Robert)
Z: 2013 John Chambers <jc:trillian.mit.edu>
N: Fixed lengths of last bass note in each strain.
M: C
L: 1/8
K: Ador
% - - - - - - - - - - - - - - - - - - - - - - - - -
V: 1
f |\
EA A/A/A Te2dc | BG G/G/G Bd-dg |\
egag Te2dg | TBA A/A/A gee :|\
|: g |\
dega {ga}b2ab | gd d/d/d gddg |
dega baba | ge e/e/e geeg |\
dega (b/a/g) (a/g/e) | (g/e/d) (e/d/B) gd-d(g/a/ |\
b)gae d>eg>B | TBA A/A/A gee :|
% - - - - - - - - - - - - - - - - - - - - - - - - -
V: 2 clef=bass middle=d
z |\
a2a2 a2a2 | g2g2 g2g2 |\
a2a2 a2a2 | a2a2 a2a :|\
|: z |\
g2g2 g2g2 | g2g2 g2g2 |
g2g2 g2g2 | a2a2 a2a2 |\
g2g2 g2g2 | g2g2 g2g2 |\
g2g2 g2g2 | a2a2 a2a :|
% - - - - - - - - - - - - - - - - - - - - - - - - -

%%sep 1 1 500
%%sep 1 1 500
